X: 34358
T: Return To The Stewartry
R: jig
M: 6/8
K: Gminor
|:"Gm"d2d cd"Eb"c-|cdc Bc"F"A-|ABA GF{F}"Gm"G-|G2G (3DGB c|
"Gm"d2d cd"Eb"c-|cdc Bc"F"A-|ABA GF{F}"Gm"G-|1 G2G (3DGB c:|2 G3) G3||
|:"Gm"DDD GAB|"Cm"DCD EFG|"F"AFB FcF|"Bb"dDE FG_A|
"Eb"GE_A EBE|"Ab"cEF G_AB|1 "D"d6-|"D7"d^FG AFE:|2 "D7"dBd ^fdf|"Gm"g6||

